www/img/office_building2.svg

<?xml version="1.0" encoding="UTF-8"?>
<!DOCTYPE svg PUBLIC "-//W3C//DTD SVG 1.1//EN" "http://www.w3.org/Graphics/SVG/1.1/DTD/svg11.dtd">
<svg xmlns="http://www.w3.org/2000/svg" xml:space="preserve" width="1024px" height="1024px" shape-rendering="geometricPrecision" text-rendering="geometricPrecision" image-rendering="optimizeQuality" fill-rule="nonzero" clip-rule="evenodd" viewBox="0 0 10240 10240" xmlns:xlink="http://www.w3.org/1999/xlink">
	<title>office_building2 icon</title>
	<desc>office_building2 icon from the IconExperience.com O-Collection. Copyright by INCORS GmbH (www.incors.com).</desc>
	<path id="curve2" fill="#808080" d="M3520,7680 4800,7680 4800,9600 3520,9600z"/>
	<path id="curve1" fill="#4D82B8" d="M5760 7680l640 0 0 1280 -640 0 0 -1280zm-2560 -5760l640 0 0 1280 -640 0 0 -1280zm1280 0l640 0 0 1280 -640 0 0 -1280zm-1280 1920l640 0 0 1280 -640 0 0 -1280zm1280 0l640 0 0 1280 -640 0 0 -1280zm-1280 1920l640 0 0 1280 -640 0 0 -1280zm1280 0l640 0 0 1280 -640 0 0 -1280zm1280 0l640 0 0 1280 -640 0 0 -1280zm1280 0l640 0 0 1280 -640 0 0 -1280zm0 1920l640 0 0 1280 -640 0 0 -1280z"/>
	<path id="curve0" fill="#808080" d="M2240 640l3840 0c176,0 320,155 320,345l0 3495 2240 0c176,0 320,164 320,366l0 4754 -3840 0 0 -320 3200 0 0 -4160 -2560 0c0,5059 0,-2266 0,-3840l-3200 0 0 8000 640 0 0 320 -1280 0 0 -8615c0,-190 144,-345 320,-345z"/>
</svg>

<svg xmlns="http://www.w3.org/2000/svg" width="1024" height="1024" shape-rendering="geometricPrecision" text-rendering="geometricPrecision" image-rendering="optimizeQuality" clip-rule="evenodd" viewBox="0 0 10240 10240"><title>office_building2 icon</title><desc>office_building2 icon from the IconExperience.com O-Collection. Copyright by INCORS GmbH (www.incors.com).</desc><path fill="gray" d="M3520 7680h1280v1920H3520z"/><path fill="#4D82B8" d="M5760 7680h640v1280h-640V7680zM3200 1920h640v1280h-640V1920zm1280 0h640v1280h-640V1920zM3200 3840h640v1280h-640V3840zm1280 0h640v1280h-640V3840zM3200 5760h640v1280h-640V5760zm1280 0h640v1280h-640V5760zm1280 0h640v1280h-640V5760zm1280 0h640v1280h-640V5760zm0 1920h640v1280h-640V7680z"/><path fill="gray" d="M2240 640h3840c176 0 320 155 320 345v3495h2240c176 0 320 164 320 366v4754H5120v-320h3200V5120H5760V1280H2560v8000h640v320H1920V985c0-190 144-345 320-345z"/></svg>
